lib/assets/icons/svg/outlined-content-lock.svg

<svg xmlns="http://www.w3.org/2000/svg" viewBox="0 0 24 24"><path d="M20 12.27v7.48a1.75 1.75 0 0 1-1.75 1.75H5.75a1.75 1.75 0 0 1-1.6-1.8v-7.47c.004-.174.034-.346.09-.51a.227.227 0 0 1 0-.09c.059-.152.136-.297.23-.43v-.06c.095-.127.21-.238.34-.33.135-.092.284-.162.44-.21V9.23A6.75 6.75 0 0 1 12 2.5a6.75 6.75 0 0 1 6.8 6.73v1.42h.05c.156.048.305.118.44.21.13.092.245.203.34.33l.05.06c.092.131.169.272.23.42a.28.28 0 0 1 0 .1c.055.161.085.33.09.5zM6.25 10.5h1.5v-1A4.25 4.25 0 0 1 12 5.26a4.25 4.25 0 0 1 4.24 4.27v1h1.5v-1.3A5.74 5.74 0 0 0 12 3.5a5.75 5.75 0 0 0-5.75 5.73zM12 6.26A3.25 3.25 0 0 0 8.75 9.5v1h6.5v-1A3.24 3.24 0 0 0 12 6.26zm6.9 6.07a.674.674 0 0 0-.06-.29v-.07a.752.752 0 0 0-.28-.28l-.08-.05a.72.72 0 0 0-.29-.06H5.69a.72.72 0 0 0-.29.06.706.706 0 0 0-.34.36.674.674 0 0 0-.06.28v7.47a.679.679 0 0 0 .06.25c.023.073.06.141.11.2l.1.12a.72.72 0 0 0 .48.18h12.5c.1 0 .199-.02.29-.06.049-.026.096-.057.14-.09a.671.671 0 0 0 .21-.23c.05-.03.05-.08.05-.08a.674.674 0 0 0 .06-.29zm-5.03 2.42a1.871 1.871 0 0 1-.63 1.39v1.17a1.25 1.25 0 0 1-.75 1.08c-.154.07-.321.104-.49.1a1.24 1.24 0 0 1-1.25-1.26v-1.11a1.87 1.87 0 0 1-.62-1.39 1.87 1.87 0 0 1 3.74.02z"/></svg>

<svg viewBox="0 0 24 24" xmlns="http://www.w3.org/2000/svg">
  <path d="M 20 12.27 L 20 19.75 C 20 20.716 19.216 21.5 18.25 21.5 L 5.75 21.5 C 4.823 21.421 4.12 20.63 4.15 19.7 L 4.15 12.23 C 4.154 12.056 4.184 11.884 4.24 11.72 C 4.234 11.69 4.234 11.66 4.24 11.63 C 4.299 11.478 4.376 11.333 4.47 11.2 L 4.47 11.14 C 4.565 11.013 4.68 10.902 4.81 10.81 C 4.945 10.718 5.094 10.648 5.25 10.6 L 5.25 9.23 C 5.261 5.51 8.28 2.5 12 2.5 C 15.74 2.472 18.789 5.49 18.8 9.23 L 18.8 10.65 L 18.85 10.65 C 19.006 10.698 19.155 10.768 19.29 10.86 C 19.42 10.952 19.535 11.063 19.63 11.19 L 19.68 11.25 C 19.772 11.381 19.849 11.522 19.91 11.67 C 19.916 11.703 19.916 11.737 19.91 11.77 C 19.965 11.931 19.995 12.1 20 12.27 Z M 6.25 10.5 L 7.75 10.5 L 7.75 9.5 C 7.756 7.157 9.657 5.26 12 5.26 C 14.351 5.266 16.251 7.179 16.24 9.53 L 16.24 10.53 L 17.74 10.53 L 17.74 9.23 C 17.734 6.064 15.166 3.5 12 3.5 C 8.832 3.5 6.261 6.062 6.25 9.23 Z M 12 6.26 C 10.209 6.26 8.756 7.709 8.75 9.5 L 8.75 10.5 L 15.25 10.5 L 15.25 9.5 C 15.25 7.707 13.793 6.254 12 6.26 Z M 18.9 12.33 C 18.902 12.23 18.881 12.131 18.84 12.04 C 18.84 11.97 18.84 11.97 18.84 11.97 C 18.773 11.853 18.677 11.757 18.56 11.69 L 18.48 11.64 C 18.389 11.6 18.29 11.58 18.19 11.58 L 5.69 11.58 C 5.59 11.58 5.491 11.6 5.4 11.64 C 5.247 11.715 5.126 11.843 5.06 12 C 5.02 12.088 5 12.183 5 12.28 L 5 19.75 C 5.004 19.836 5.024 19.921 5.06 20 C 5.083 20.073 5.12 20.141 5.17 20.2 L 5.27 20.32 C 5.327 20.369 5.391 20.41 5.46 20.44 C 5.551 20.48 5.65 20.5 5.75 20.5 L 18.25 20.5 C 18.35 20.5 18.449 20.48 18.54 20.44 C 18.589 20.414 18.636 20.383 18.68 20.35 C 18.767 20.291 18.839 20.212 18.89 20.12 C 18.94 20.09 18.94 20.04 18.94 20.04 C 18.981 19.949 19.002 19.85 19 19.75 Z M 13.87 14.75 C 13.867 15.282 13.638 15.787 13.24 16.14 C 13.24 16.2 13.24 17.31 13.24 17.31 C 13.215 17.783 12.924 18.201 12.49 18.39 C 12.336 18.46 12.169 18.494 12 18.49 C 11.303 18.496 10.739 17.927 10.75 17.23 L 10.75 16.12 C 10.356 15.766 10.13 15.26 10.13 14.73 C 10.14 13.852 10.76 13.098 11.62 12.92 C 11.871 12.867 12.129 12.867 12.38 12.92 C 13.247 13.1 13.87 13.864 13.87 14.75 Z"></path>
</svg>
